public/logos/gopuff.svg

<?xml version="1.0" encoding="utf-8"?>
<svg xmlns="http://www.w3.org/2000/svg" fill="none" height="100%" overflow="visible" preserveAspectRatio="none" style="display: block;" viewBox="0 0 66.1494 22" width="100%">
<g id="Gopuff">
<path d="M46.1747 5.38597V11.8671C46.1747 13.5407 45.6574 14.5448 44.3795 14.5448C43.132 14.5448 42.5842 13.5407 42.5842 11.8671V5.38597H39.0241V12.1106C39.0241 15.6098 41.1542 17.0703 44.3795 17.0703C47.0267 17.0703 49.7349 15.6098 49.7349 12.1106V5.38597H46.1747Z" fill="var(--fill-0, #9FA3AE)" id="Vector"/>
<path d="M19.0628 5.14276C15.381 5.14276 12.9467 7.51617 12.9467 11.198C12.9467 14.8797 15.5331 17.0705 18.8498 17.0705C21.923 17.0705 24.8745 15.1536 24.8745 10.985C24.9049 7.5466 22.5619 5.14276 19.0628 5.14276ZM18.9715 14.5451C17.4501 14.5451 16.6285 13.0541 16.6285 11.1067C16.6285 9.40267 17.2675 7.66832 18.9715 7.66832C20.5841 7.66832 21.2232 9.40267 21.2232 11.0763C21.2232 13.1758 20.3407 14.5451 18.9715 14.5451Z" fill="var(--fill-0, #9FA3AE)" id="Vector_2"/>
<path d="M10.4368 4.59519C9.21964 5.41672 8.91533 6.66428 8.91533 6.66428C8.27639 5.84264 6.93752 5.2037 5.35533 5.2037C2.73847 5.2037 0 7.54667 0 11.2285C0 14.4843 2.31243 17.0097 5.35533 17.0097C6.60289 17.0097 7.45486 16.7055 8.15466 16.0361C8.15466 16.0361 8.15466 16.1882 8.15466 16.2795C8.15466 18.3486 6.87666 19.2919 5.17274 19.2919C3.52957 19.2919 2.37329 18.7442 1.64306 18.3182L0.943254 21.0263C1.88651 21.5131 3.77302 22 5.26403 22C6.93752 22 8.64156 21.6653 9.88913 20.6003C11.1974 19.4744 11.6235 17.6488 11.6235 15.458V10.3764C11.6539 8.61165 12.2624 7.39452 13.0232 6.51213L10.4368 4.59519ZM6.0247 14.5755C4.50325 14.5755 3.68172 13.0846 3.68172 11.1372C3.68172 9.43318 4.32078 7.69883 6.0247 7.69883C7.60701 7.69883 8.27639 9.43318 8.27639 11.1068C8.27639 13.2063 7.39399 14.5755 6.0247 14.5755Z" fill="var(--fill-0, #9FA3AE)" id="Vector_3"/>
<path d="M31.9498 5.14276C28.1464 5.14276 26.0772 7.66832 26.0772 11.411V21.726H29.6069V16.0664C30.2459 16.7359 31.25 17.101 32.6192 17.101C35.1448 17.101 37.8225 15.1536 37.8225 10.985C37.8225 7.30315 35.3882 5.14276 31.9498 5.14276ZM31.9194 14.5451C30.398 14.5451 29.5764 13.0541 29.5764 11.1067C29.5764 9.40267 30.2155 7.66832 31.9194 7.66832C33.5321 7.66832 34.1711 9.40267 34.1711 11.0763C34.1711 13.1758 33.3191 14.5451 31.9194 14.5451Z" fill="var(--fill-0, #9FA3AE)" id="Vector_4"/>
<path d="M66.1494 2.95159V0.24345C65.6626 0.0912937 65.054 0 64.2629 0C63.2284 0 61.9808 0.30431 61.0984 1.12584C60.0943 2.06909 59.6683 3.59054 59.6683 4.95982V5.38575H55.9865V4.80767C55.9257 2.03866 58.6337 2.8603 58.938 2.95159V0.24345C58.4511 0.0912937 57.8426 0 57.0515 0C56.0168 0 54.7694 0.30431 53.8869 1.12584C52.8828 2.06909 52.4568 3.59054 52.4568 4.95982V5.38575H50.9354V8.0026H52.4568V16.8267C52.4568 19.261 50.7832 18.8958 50.0226 18.7741L49.6574 21.3909C50.0226 21.5431 50.6007 21.6648 51.1789 21.6648C52.7915 21.6648 53.9173 21.1779 54.6781 20.4477C55.6518 19.5043 55.9865 18.1352 55.9865 16.7963L56.0168 8.0026H59.6683V16.8267C59.7291 19.3827 57.7209 18.8654 57.234 18.7741L56.8689 21.3909C57.234 21.5431 57.8122 21.6648 58.3903 21.6648C60.003 21.6648 61.1288 21.1779 61.8895 20.4477C62.8632 19.5043 63.1979 18.1352 63.1979 16.7963L63.2284 8.0026H66.1494V5.41618H63.1979V4.80767C63.2588 2.03866 65.8452 2.8603 66.1494 2.95159Z" fill="var(--fill-0, #9FA3AE)" id="Vector_5"/>
</g>
</svg>

<svg xmlns="http://www.w3.org/2000/svg" fill="none" overflow="visible" preserveAspectRatio="none" style="display:block" viewBox="0 0 66.149 22"><g fill="var(--fill-0, #9fa3ae)"><path d="M46.175 5.386v6.481c0 1.674-.518 2.678-1.795 2.678-1.248 0-1.796-1.004-1.796-2.678V5.386h-3.56v6.725c0 3.499 2.13 4.96 5.355 4.96 2.648 0 5.356-1.461 5.356-4.96V5.386zM19.063 5.143c-3.682 0-6.116 2.373-6.116 6.055s2.586 5.872 5.903 5.872c3.073 0 6.025-1.916 6.025-6.085.03-3.438-2.313-5.842-5.812-5.842m-.091 9.402c-1.522 0-2.344-1.49-2.344-3.438 0-1.704.64-3.439 2.343-3.439 1.613 0 2.252 1.735 2.252 3.408 0 2.1-.882 3.47-2.251 3.47M10.437 4.595c-1.217.822-1.522 2.07-1.522 2.07-.639-.822-1.977-1.461-3.56-1.461C2.738 5.204 0 7.547 0 11.229c0 3.255 2.312 5.78 5.355 5.78 1.248 0 2.1-.303 2.8-.973v.243c0 2.07-1.278 3.013-2.982 3.013-1.643 0-2.8-.548-3.53-.974l-.7 2.708c.944.487 2.83.974 4.321.974 1.674 0 3.378-.335 4.625-1.4 1.308-1.126 1.735-2.951 1.735-5.142v-5.082c.03-1.764.638-2.981 1.4-3.864zm-4.412 9.98c-1.522 0-2.343-1.49-2.343-3.438 0-1.704.639-3.438 2.343-3.438 1.582 0 2.251 1.734 2.251 3.408 0 2.1-.882 3.469-2.251 3.469M31.95 5.143c-3.804 0-5.873 2.525-5.873 6.268v10.315h3.53v-5.66c.639.67 1.643 1.035 3.012 1.035 2.526 0 5.203-1.947 5.203-6.116 0-3.682-2.434-5.842-5.872-5.842m-.03 9.402c-1.522 0-2.344-1.49-2.344-3.438 0-1.704.64-3.439 2.343-3.439 1.613 0 2.252 1.735 2.252 3.408 0 2.1-.852 3.47-2.252 3.47M66.15 2.952V.243C65.662.091 65.053 0 64.262 0c-1.035 0-2.282.304-3.165 1.126-1.004.943-1.43 2.465-1.43 3.834v.426h-3.681v-.578c-.061-2.77 2.647-1.948 2.951-1.856V.243C58.451.091 57.843 0 57.051 0c-1.034 0-2.282.304-3.164 1.126-1.004.943-1.43 2.465-1.43 3.834v.426h-1.522v2.617h1.522v8.824c0 2.434-1.674 2.069-2.434 1.947l-.366 2.617c.366.152.944.274 1.522.274 1.612 0 2.738-.487 3.5-1.217.973-.944 1.307-2.313 1.307-3.652l.03-8.793h3.652v8.824c.061 2.556-1.947 2.038-2.434 1.947l-.365 2.617c.365.152.943.274 1.521.274 1.613 0 2.739-.487 3.5-1.217.973-.944 1.308-2.313 1.308-3.652l.03-8.793h2.921V5.416h-2.951v-.608c.06-2.77 2.647-1.948 2.951-1.856"/></g></svg>
